packages/dnb-eufemia/assets/icons/person_shield_medium.svg

<svg width="24" height="24" viewBox="0 0 24 24" fill="none" xmlns="http://www.w3.org/2000/svg">
<path d="M2.7641 22.4605C2.74228 22.8741 3.0599 23.2271 3.47354 23.249C3.88718 23.2708 4.24019 22.9532 4.26202 22.5395L2.7641 22.4605ZM9.78614 17.9269C10.1832 18.045 10.6007 17.8189 10.7189 17.4219C10.837 17.0249 10.6109 16.6073 10.2139 16.4892L9.78614 17.9269ZM13.5 15.2222H14.25L14.25 15.2174L13.5 15.2222ZM13.5 17.9923H12.75V17.9923L13.5 17.9923ZM17.0582 22.8685L16.7816 23.5657L17.0582 22.8685ZM17.9418 22.8685L18.2184 23.5657L17.9418 22.8685ZM21.5 17.9923L22.25 17.9923V17.9923H21.5ZM21.5 15.2222L20.75 15.2174V15.2222H21.5ZM21.1439 14.6454L21.4644 13.9673C21.3911 13.9327 21.3127 13.9101 21.2322 13.9006L21.1439 14.6454ZM17.5 13L17.9883 12.4308C17.7074 12.1897 17.2926 12.1897 17.0117 12.4308L17.5 13ZM13.8561 14.6454L13.7678 13.9006C13.6873 13.9101 13.6089 13.9327 13.5356 13.9673L13.8561 14.6454ZM4.26202 22.5395C4.33714 21.116 4.76011 19.9117 5.46179 19.078C6.14745 18.2634 7.14061 17.75 8.50001 17.75V16.25C6.71407 16.25 5.29502 16.9467 4.31417 18.1121C3.34934 19.2585 2.8515 20.8042 2.7641 22.4605L4.26202 22.5395ZM13.75 7C13.75 9.8995 11.3995 12.25 8.5 12.25V13.75C12.2279 13.75 15.25 10.7279 15.25 7H13.75ZM8.5 12.25C5.60051 12.25 3.25 9.8995 3.25 7H1.75C1.75 10.7279 4.77208 13.75 8.5 13.75V12.25ZM3.25 7C3.25 4.10051 5.60051 1.75 8.5 1.75V0.25C4.77208 0.25 1.75 3.27208 1.75 7H3.25ZM8.5 1.75C11.3995 1.75 13.75 4.10051 13.75 7H15.25C15.25 3.27208 12.2279 0.25 8.5 0.25V1.75ZM8.50001 17.75C8.97697 17.75 9.4046 17.8134 9.78614 17.9269L10.2139 16.4892C9.68345 16.3314 9.11092 16.25 8.50001 16.25V17.75ZM12.75 15.2222V17.9923H14.25V15.2222H12.75ZM16.7816 23.5657C16.944 23.6301 17.2118 23.75 17.5 23.75C17.7881 23.75 18.056 23.6301 18.2184 23.5657L17.6653 22.1714C17.5452 22.219 17.4907 22.2402 17.4526 22.2523C17.4242 22.2613 17.4501 22.25 17.5 22.25C17.5499 22.25 17.5758 22.2613 17.5474 22.2523C17.5093 22.2402 17.4548 22.219 17.3347 22.1714L16.7816 23.5657ZM22.25 17.9923V15.2222H20.75V17.9923H22.25ZM21.2322 13.9006C20.3701 13.7983 19.5594 13.4385 18.946 13.0842C18.6434 12.9093 18.3985 12.7415 18.2311 12.6187C18.1475 12.5575 18.0838 12.5079 18.0424 12.4749C18.0218 12.4584 18.0067 12.446 17.9976 12.4385C17.993 12.4347 17.9899 12.4321 17.9884 12.4308C17.9876 12.4301 17.9872 12.4298 17.9872 12.4298C17.9872 12.4298 17.9873 12.4299 17.9875 12.43C17.9876 12.4301 17.9877 12.4302 17.9878 12.4303C17.9879 12.4304 17.988 12.4305 17.9881 12.4305C17.9882 12.4306 17.9883 12.4308 17.5 13C17.0117 13.5692 17.0118 13.5694 17.012 13.5695C17.012 13.5696 17.0122 13.5697 17.0123 13.5698C17.0126 13.57 17.0128 13.5702 17.0131 13.5705C17.0137 13.571 17.0144 13.5716 17.0152 13.5723C17.0168 13.5736 17.0188 13.5753 17.0212 13.5773C17.026 13.5813 17.0323 13.5867 17.0403 13.5933C17.0562 13.6064 17.0783 13.6246 17.1064 13.647C17.1626 13.6919 17.2427 13.7541 17.3444 13.8286C17.5472 13.9772 17.8377 14.1762 18.1957 14.383C18.9036 14.7919 19.9148 15.2548 21.0555 15.3901L21.2322 13.9006ZM17.5 13C17.0117 12.4308 17.0118 12.4306 17.0119 12.4305C17.012 12.4305 17.0121 12.4304 17.0122 12.4303C17.0123 12.4302 17.0124 12.4301 17.0125 12.43C17.0127 12.4299 17.0128 12.4298 17.0128 12.4298C17.0128 12.4298 17.0124 12.4301 17.0116 12.4308C17.0101 12.4321 17.007 12.4347 17.0024 12.4385C16.9933 12.446 16.9782 12.4584 16.9576 12.4749C16.9162 12.5079 16.8525 12.5575 16.7689 12.6187C16.6015 12.7415 16.3566 12.9093 16.054 13.0842C15.4406 13.4385 14.6299 13.7983 13.7678 13.9006L13.9445 15.3901C15.0852 15.2548 16.0964 14.7919 16.8043 14.383C17.1623 14.1762 17.4528 13.9772 17.6557 13.8286C17.7573 13.7541 17.8374 13.6919 17.8936 13.647C17.9217 13.6246 17.9438 13.6064 17.9597 13.5933C17.9677 13.5867 17.9741 13.5813 17.9788 13.5773C17.9812 13.5753 17.9832 13.5736 17.9848 13.5723C17.9856 13.5716 17.9863 13.571 17.9869 13.5705C17.9872 13.5702 17.9874 13.57 17.9877 13.5698C17.9878 13.5697 17.988 13.5696 17.988 13.5695C17.9882 13.5694 17.9883 13.5692 17.5 13ZM22.25 15.2271C22.2534 14.7025 21.9509 14.1972 21.4644 13.9673L20.8234 15.3234C20.7883 15.3068 20.7716 15.2862 20.7645 15.2746C20.7573 15.2629 20.7498 15.2447 20.75 15.2174L22.25 15.2271ZM13.5356 13.9673C13.0491 14.1972 12.7466 14.7025 12.75 15.2271L14.25 15.2174C14.2502 15.2447 14.2427 15.2629 14.2355 15.2746C14.2284 15.2862 14.2117 15.3068 14.1766 15.3234L13.5356 13.9673ZM12.75 17.9923C12.75 20.6941 14.5039 22.6621 16.7816 23.5657L17.3347 22.1714C15.4957 21.4419 14.25 19.9477 14.25 17.9923L12.75 17.9923ZM18.2184 23.5657C20.4961 22.6621 22.25 20.6941 22.25 17.9923L20.75 17.9923C20.75 19.9477 19.5043 21.4419 17.6653 22.1714L18.2184 23.5657Z" fill="black"/>
</svg>

<svg width="24" height="24" viewBox="0 0 24 24" fill="none" xmlns="http://www.w3.org/2000/svg"><path d="M2.764 22.46a.75.75 0 0 0 1.498.08l-1.498-.08Zm7.022-4.533a.75.75 0 0 0 .428-1.438l-.428 1.438Zm3.714-2.705h.75v-.005l-.75.005Zm0 2.77h-.75.75Zm3.558 4.877-.276.697.276-.697Zm.884 0 .276.697-.276-.697Zm3.558-4.877h.75-.75Zm0-2.77-.75-.005v.005h.75Zm-.356-.577.32-.678a.75.75 0 0 0-.232-.066l-.088.744ZM17.5 13l.488-.57a.75.75 0 0 0-.976 0l.488.57Zm-3.644 1.645-.088-.744a.75.75 0 0 0-.232.066l.32.678ZM4.262 22.54c.075-1.424.498-2.628 1.2-3.462.685-.815 1.679-1.328 3.038-1.328v-1.5c-1.786 0-3.205.697-4.186 1.862-.965 1.147-1.462 2.692-1.55 4.349l1.498.079ZM13.75 7c0 2.9-2.35 5.25-5.25 5.25v1.5A6.75 6.75 0 0 0 15.25 7h-1.5ZM8.5 12.25A5.25 5.25 0 0 1 3.25 7h-1.5a6.75 6.75 0 0 0 6.75 6.75v-1.5ZM3.25 7c0-2.9 2.35-5.25 5.25-5.25V.25A6.75 6.75 0 0 0 1.75 7h1.5ZM8.5 1.75c2.9 0 5.25 2.35 5.25 5.25h1.5A6.75 6.75 0 0 0 8.5.25v1.5Zm0 16c.477 0 .905.063 1.286.177l.428-1.438A5.99 5.99 0 0 0 8.5 16.25v1.5Zm4.25-2.528v2.77h1.5v-2.77h-1.5Zm4.032 8.344c.162.064.43.184.718.184s.556-.12.718-.184l-.553-1.395c-.12.048-.174.07-.212.081-.029.01-.003-.002.047-.002s.076.011.047.002a3.914 3.914 0 0 1-.212-.08l-.553 1.394Zm5.468-5.574v-2.77h-1.5v2.77h1.5Zm-1.018-4.091c-.862-.103-1.673-.463-2.286-.817a7.937 7.937 0 0 1-.948-.646.62.62 0 0 1-.01-.007v-.001L17.5 13l-.488.57h.001l.002.002.006.005.02.016a5.002 5.002 0 0 0 .303.236c.203.148.494.347.852.554.708.409 1.719.872 2.86 1.007l.176-1.49ZM17.5 13l-.488-.57a.62.62 0 0 1-.054.045 7.937 7.937 0 0 1-.904.61c-.613.354-1.424.713-2.286.816l.176 1.49c1.141-.136 2.152-.6 2.86-1.008a9.465 9.465 0 0 0 1.09-.736 5.002 5.002 0 0 0 .085-.07l.006-.005.002-.002h.001L17.5 13Zm4.75 2.227c.003-.524-.3-1.03-.786-1.26l-.64 1.356a.134.134 0 0 1-.06-.048.105.105 0 0 1-.014-.058l1.5.01Zm-8.714-1.26c-.487.23-.79.736-.786 1.26l1.5-.01a.105.105 0 0 1-.014.058.134.134 0 0 1-.06.048l-.64-1.356Zm-.786 4.025c0 2.702 1.754 4.67 4.032 5.574l.553-1.395c-1.84-.73-3.085-2.223-3.085-4.179h-1.5Zm5.468 5.574c2.278-.904 4.032-2.872 4.032-5.574h-1.5c0 1.956-1.246 3.45-3.085 4.18l.553 1.394Z" fill="#000"/></svg>
